styles/2/Numix/22/places/pink-folder-wine.svg

<?xml version="1.0" encoding="UTF-8" standalone="no"?>
<svg
   xmlns:dc="http://purl.org/dc/elements/1.1/"
   xmlns:cc="http://creativecommons.org/ns#"
   xmlns:rdf="http://www.w3.org/1999/02/22-rdf-syntax-ns#"
   xmlns:svg="http://www.w3.org/2000/svg"
   xmlns="http://www.w3.org/2000/svg"
   xmlns:sodipodi="http://sodipodi.sourceforge.net/DTD/sodipodi-0.dtd"
   xmlns:inkscape="http://www.inkscape.org/namespaces/inkscape"
   width="22"
   height="22"
   viewBox="0 0 22 22"
   id="svg3119"
   version="1.1"
   inkscape:version="0.91 r"
   sodipodi:docname="pink-folder-wine.svg">
  <metadata
     id="metadata3139">
    <rdf:RDF>
      <cc:Work
         rdf:about="">
        <dc:format>image/svg+xml</dc:format>
        <dc:type
           rdf:resource="http://purl.org/dc/dcmitype/StillImage" />
      </cc:Work>
    </rdf:RDF>
  </metadata>
  <defs
     id="defs3137" />
  <sodipodi:namedview
     pagecolor="#ffffff"
     bordercolor="#666666"
     borderopacity="1"
     objecttolerance="10"
     gridtolerance="10"
     guidetolerance="10"
     inkscape:pageopacity="0"
     inkscape:pageshadow="2"
     inkscape:window-width="1280"
     inkscape:window-height="998"
     id="namedview3135"
     showgrid="true"
     inkscape:zoom="21.454545"
     inkscape:cx="0.83184673"
     inkscape:cy="11.265762"
     inkscape:window-x="0"
     inkscape:window-y="0"
     inkscape:window-maximized="1"
     inkscape:current-layer="svg3119">
    <inkscape:grid
       type="xygrid"
       id="grid3766" />
  </sodipodi:namedview>
  <path
     style="font-size:medium;font-style:normal;font-variant:normal;font-weight:normal;font-stretch:normal;text-indent:0;text-align:start;text-decoration:none;line-height:normal;letter-spacing:normal;word-spacing:normal;text-transform:none;direction:ltr;block-progression:tb;writing-mode:lr-tb;text-anchor:start;baseline-shift:baseline;color:#000000;fill:#f06292;fill-opacity:1;fill-rule:nonzero;stroke:none;stroke-width:1.03313816;marker:none;visibility:visible;display:inline;overflow:visible;enable-background:accumulate;font-family:Sans;-inkscape-font-specification:Sans"
     d="m 3.0000115,2 c -0.5473306,0 -1,0.4096882 -1,1 l 0,1 -1,0 C 0.49808429,4 1.1533333e-5,4.3847489 1.1533333e-5,5 c -1.52499997e-5,4.5937493 0,9.40625 0,14 0,0.545771 0.493417306667,1 0.999999966667,1 l 20.0000005,0 c 0.515688,0 1,-0.437034 1,-1 l 0,-13 c 0,-0.5770209 -0.423105,-1 -1,-1 l -2,0 0,-2 c 0,-0.4874255 -0.401824,-1 -1,-1 z"
     id="path2995"
     inkscape:connector-curvature="0"
     sodipodi:nodetypes="ccccccssssscssc" />
  <path
     style="font-size:medium;font-style:normal;font-variant:normal;font-weight:normal;font-stretch:normal;text-indent:0;text-align:start;text-decoration:none;line-height:normal;letter-spacing:normal;word-spacing:normal;text-transform:none;direction:ltr;block-progression:tb;writing-mode:lr-tb;text-anchor:start;baseline-shift:baseline;color:#000000;fill:#000000;fill-opacity:0.32156863;fill-rule:nonzero;stroke:none;stroke-width:1.03313816;marker:none;visibility:visible;display:inline;overflow:visible;enable-background:accumulate;font-family:Sans;-inkscape-font-specification:Sans"
     d="m 3.0000115,2 c -0.5444543,0 -1,0.3988699 -1,1 l 0,1 -1,0 C 0.49325208,4 1.1533333e-5,4.3964676 1.1533333e-5,5 c -2.595e-5,4.5937491 0,9.40625 0,14 0,0.487177 0.419198556667,1 0.999999966667,1 l 20.0000005,0 c 0.521212,0 1,-0.442558 1,-1 l 0,-13 c 0,-0.5731146 -0.393904,-1 -1,-1 l -2,0 0,-2 c 0,-0.5585119 -0.457433,-1 -1,-1 z m 10.0000005,3 0,1 8,0 0,13 -20.0000005,0 0,-14 z"
     id="path3786"
     inkscape:connector-curvature="0"
     sodipodi:nodetypes="ssccccssssscsssccccccc" />
  <path
     style="line-height:normal;opacity:1;color:#000000;fill:#000000;fill-opacity:0.32156864000000002"
     d="M 10.5 8 C 10.223858 8 10 8.2238 10 8.5 C 10 8.7762 10.223858 9 10.5 9 C 10.776142 9 11 8.7762 11 8.5 C 11 8.2238 10.776142 8 10.5 8 z M 14.875 8 C 14.430835 8.01 14.00743 8.28625 13.9375 8.78125 C 13.825612 9.57335 14.641171 9.25 15.3125 9.25 C 15.983828 9.25 16.230332 10.5569 16.0625 11.25 C 15.894667 11.943 14.096304 13.5747 10.0625 11.9375 C 6.741403 10.5898 5.083679 12.37035 5 12.40625 C 5.314303 15.08385 7.89086 18 11 18 C 14.321433 18 17 14.8141 17 11.875 C 17 11.5374 16.942918 11.1951 16.875 10.875 C 16.81325 10.7133 16.764091 10.55345 16.71875 10.40625 C 16.63747 10.14255 16.547439 9.92565 16.46875 9.71875 C 16.46535 9.70875 16.47225 9.6935 16.46875 9.6875 C 16.150811 9.0626 15.70723 8.50005 15.15625 8.03125 C 15.15375 8.02125 15.12748 8.04125 15.125 8.03125 C 15.0389 8.01225 14.963832 7.998 14.875 8 z M 13 10 C 12.447715 10 12 10.4477 12 11 C 12 11.5523 12.447715 12 13 12 C 13.552285 12 14 11.5523 14 11 C 14 10.4477 13.552285 10 13 10 z "
     id="path3974" />
</svg>

<svg xmlns="http://www.w3.org/2000/svg" viewBox="0 0 22 22">
 <path d="m 3 2 c -0.547 0 -1 0.41 -1 1 l 0 1 -1 0 c -0.502 0 -1 0.385 -1 1 c 0 4.594 0 9.406 0 14 0 0.546 0.493 1 1 1 l 20 0 c 0.516 0 1 -0.437 1 -1 l 0 -13 c 0 -0.577 -0.423 -1 -1 -1 l -2 0 0 -2 c 0 -0.487 -0.402 -1 -1 -1 z" style="visibility:visible;fill:#f06292;fill-opacity:1;stroke:none;display:inline;color:#000;fill-rule:nonzero"/>
 <path d="m 3 2 c -0.544 0 -1 0.399 -1 1 l 0 1 -1 0 c -0.507 0 -1 0.396 -1 1 c 0 4.594 0 9.406 0 14 0 0.487 0.419 1 1 1 l 20 0 c 0.521 0 1 -0.443 1 -1 l 0 -13 c 0 -0.573 -0.394 -1 -1 -1 l -2 0 0 -2 c 0 -0.559 -0.457 -1 -1 -1 z m 10 3 0 1 8 0 0 13 -20 0 0 -14 z" style="visibility:visible;fill:#000;fill-opacity:0.322;stroke:none;display:inline;color:#000;fill-rule:nonzero"/>
 <path d="m 10.5 8 c -0.276 0 -0.5 0.224 -0.5 0.5 c 0 0.276 0.224 0.5 0.5 0.5 c 0.276 0 0.5 -0.224 0.5 -0.5 c 0 -0.276 -0.224 -0.5 -0.5 -0.5 z m 4.375 0 c -0.444 0.01 -0.868 0.286 -0.938 0.781 c -0.112 0.792 0.704 0.469 1.375 0.469 c 0.671 0 0.918 1.307 0.75 2 c -0.168 0.693 -1.966 2.325 -6 0.688 c -3.321 -1.348 -4.979 0.433 -5.063 0.469 c 0.314 2.678 2.891 5.594 6 5.594 c 3.321 0 6 -3.186 6 -6.125 c 0 -0.338 -0.057 -0.68 -0.125 -1 c -0.062 -0.162 -0.111 -0.322 -0.156 -0.469 c -0.081 -0.264 -0.171 -0.481 -0.25 -0.688 c -0.003 -0.01 0.003 -0.025 0 -0.031 c -0.318 -0.625 -0.762 -1.187 -1.313 -1.656 c -0.002 -0.01 -0.029 0.01 -0.031 0 c -0.086 -0.019 -0.161 -0.033 -0.25 -0.031 z m -1.875 2 c -0.552 0 -1 0.448 -1 1 c 0 0.552 0.448 1 1 1 c 0.552 0 1 -0.448 1 -1 c 0 -0.552 -0.448 -1 -1 -1 z" style="fill:#000;opacity:1;fill-opacity:0.322;color:#000"/>
</svg>
